X:1
T: Lasses, Trust in Providence
C:
R:Reel
Q: 232
K:D
M:4/4
L:1/8
|:d2 de fd ef|d2 df ed BA|d2 de fd ef|dB AF E2 E2|
d2 de fd ef|d2 df ed BA|d2 de fd ef|dB AF E2 E2|
A2 AB AD FA|d2 d2 BA Bd|A2 AB AD FA|GF EC D2 D2|
A2 AB AD FA|d2 d2 BA Bd|A2 AB AD FA|GF EC D2 D2:|
